assets/images/kvadro-img1.svg

<svg width="240" height="53" viewBox="0 0 240 53" fill="none" xmlns="http://www.w3.org/2000/svg">
<g clip-path="url(#clip0_103_183)">
<path d="M26.1262 0C11.6976 0 0 11.6968 0 26.1279C0 40.5564 11.6976 52.2557 26.1262 52.2557C40.5555 52.2557 52.254 40.5564 52.254 26.1279C52.254 11.6968 40.5564 0 26.1262 0ZM26.1262 49.3062C13.3251 49.3062 2.94611 38.9281 2.94611 26.1279C2.94611 13.3251 13.3243 2.94781 26.1262 2.94781C38.9281 2.94781 49.3062 13.3251 49.3062 26.1279C49.3062 38.9281 38.9281 49.3062 26.1262 49.3062Z" fill="#48217A"/>
<path d="M45.1163 36.6498L41.3229 32.22C41.2761 32.1664 41.2208 32.1205 41.157 32.083C40.963 31.9724 40.735 31.9699 40.547 32.0609C39.9677 32.3348 39.2675 32.3297 38.6703 31.9852C38.1386 31.6806 37.8 31.1668 37.6945 30.6087C37.4274 29.1871 36.5673 27.8872 35.2171 27.1088L33.5182 26.1287L43.1767 20.553L41.9814 18.4814L31.1277 24.7471L29.8235 23.9951V22.4884L40.6763 16.2219L39.481 14.1512L29.8235 19.7278V17.7668C29.8235 16.2074 29.1276 14.8113 28.031 13.8704C27.5996 13.5012 27.3257 12.9516 27.3257 12.3382C27.3257 11.6483 27.6711 11.0375 28.1994 10.6733C28.3721 10.5559 28.4836 10.3569 28.4836 10.1331C28.4836 10.0591 28.4716 9.98765 28.4495 9.92129L26.5107 4.42212C26.4571 4.26133 26.3057 4.14648 26.1279 4.14648C25.9509 4.14648 25.7995 4.26133 25.7459 4.42212L23.8079 9.92129C23.7849 9.98765 23.773 10.0591 23.773 10.1331C23.773 10.3569 23.8853 10.5559 24.0563 10.6733C24.5838 11.0375 24.9309 11.6483 24.9309 12.3382C24.9309 12.9516 24.6578 13.5012 24.2248 13.8704C23.1273 14.8113 22.4331 16.2082 22.4331 17.7668V19.7278L12.7747 14.1512L11.5794 16.2219L22.4331 22.4884V23.9959L21.1289 24.7471L10.2752 18.4814L9.08077 20.553L18.7392 26.1287L17.0394 27.1088C15.6893 27.8872 14.8284 29.1871 14.5621 30.6087C14.4566 31.1668 14.1188 31.6806 13.5871 31.9852C12.9891 32.3297 12.2898 32.3348 11.7096 32.0609C11.5207 31.9707 11.2935 31.9724 11.1004 32.083C11.0358 32.1205 10.9796 32.1672 10.9345 32.22L7.14024 36.6481C7.02879 36.7748 7.00497 36.962 7.09345 37.1185C7.18193 37.2708 7.35718 37.3448 7.52222 37.3134L13.2545 36.2397C13.3234 36.2261 13.3923 36.2014 13.4553 36.1649C13.6501 36.0517 13.7641 35.8569 13.7811 35.6476C13.833 35.0096 14.1886 34.4038 14.7858 34.0593C15.3158 33.7547 15.9292 33.7156 16.466 33.9036C17.8298 34.3834 19.3858 34.2873 20.7359 33.5063L22.4348 32.528V43.6794H24.8254V31.1464L26.1304 30.3935L27.4346 31.1464V43.6786H29.826V32.5271L31.5241 33.5055C32.8742 34.2864 34.4311 34.3826 35.7948 33.9028C36.3299 33.7139 36.9441 33.753 37.475 34.0584C38.0722 34.403 38.427 35.0087 38.4789 35.6468C38.495 35.856 38.6099 36.0517 38.803 36.164C38.8668 36.2006 38.9357 36.2253 39.0046 36.2389L44.7361 37.3125C44.902 37.344 45.0764 37.27 45.1657 37.1177C45.2516 36.962 45.2269 36.7757 45.1163 36.6498ZM22.4323 29.7673L19.2445 31.6066C18.6201 31.9673 17.823 31.7529 17.4631 31.1293C17.1032 30.504 17.3168 29.7069 17.9412 29.3462L21.1289 27.5061L22.4331 28.2598L22.4323 29.7673ZM24.8228 17.4282C24.8228 16.7068 25.4064 16.1223 26.127 16.1223C26.8476 16.1223 27.432 16.7068 27.432 17.4282V21.1076L26.1279 21.8597L24.8228 21.1076V17.4282ZM27.6277 26.9939L26.1279 27.8591L24.6263 26.9931V25.2601L26.1279 24.3932L27.6277 25.2601V26.9939ZM34.7918 31.1302C34.4311 31.7529 33.6322 31.9673 33.0086 31.6075L29.8218 29.7665V28.2607L31.1259 27.5069L34.3128 29.347C34.9373 29.7078 35.1508 30.504 34.7918 31.1302Z" fill="#48217A"/>
<path d="M200.085 20.82H191.365V3.38672H183.4V48.868H191.365V28.8952H200.085V48.868H208.224V3.38672H200.085V20.82Z" fill="#48217A"/>
<path d="M58.0697 3.38672L66.9097 31.2748V48.868H75.7582V30.3713L84.9224 3.38672H77.4759L71.4603 21.1059L66.0147 3.38672H58.0697Z" fill="#48217A"/>
<path d="M134.893 3.38672L131.078 25.0218L126.653 3.38672H114.218V48.868H121.348V14.5841L127.434 44.388H134.093L139.49 14.1001V48.868H147.852V3.38672H134.893Z" fill="#48217A"/>
<path d="M232.495 3.38672H220.177L211.865 48.868H219.236L220.999 38.2848H230.167L231.877 48.868H239.999L232.495 3.38672ZM222.263 30.7031L225.652 10.3619L228.942 30.7031H222.263Z" fill="#48217A"/>
<path d="M159.805 3.38672L151.491 48.868H158.863L160.628 38.2848H169.796L171.506 48.868H179.627L172.121 3.38672H159.805ZM161.89 30.7031L165.28 10.3619L168.57 30.7031H161.89Z" fill="#48217A"/>
<path d="M90.6215 3.38672L82.3073 48.868H89.6806L91.445 38.2848H100.613L102.323 48.868H110.442L102.938 3.38672H90.6215ZM92.7075 30.7031L96.0969 10.3619L99.3858 30.7031H92.7075Z" fill="#48217A"/>
</g>
<defs>
<clipPath id="clip0_103_183">
<rect width="240" height="52.2557" fill="white"/>
</clipPath>
</defs>
</svg>

<svg width="240" height="53" fill="none" xmlns="http://www.w3.org/2000/svg"><g clip-path="url(#a)" fill="#48217A"><path d="M26.126 0C11.698 0 0 11.697 0 26.128c0 14.428 11.698 26.128 26.126 26.128 14.43 0 26.128-11.7 26.128-26.128C52.254 11.697 40.556 0 26.126 0Zm0 49.306c-12.8 0-23.18-10.378-23.18-23.178 0-12.803 10.378-23.18 23.18-23.18s23.18 10.377 23.18 23.18c0 12.8-10.378 23.178-23.18 23.178Z"/><path d="m45.116 36.65-3.793-4.43a.655.655 0 0 0-.776-.16 2.02 2.02 0 0 1-2.852-1.451 5.115 5.115 0 0 0-2.478-3.5l-1.699-.98 9.659-5.576-1.196-2.072-10.853 6.266-1.305-.752v-1.507l10.853-6.266-1.195-2.07-9.658 5.576v-1.961a5.12 5.12 0 0 0-1.792-3.897 2.019 2.019 0 0 1 .168-3.197.651.651 0 0 0 .25-.752l-1.938-5.499a.403.403 0 0 0-.765 0l-1.938 5.5a.655.655 0 0 0 .248.752 2.022 2.022 0 0 1 .169 3.196 5.118 5.118 0 0 0-1.792 3.897v1.96l-9.658-5.576-1.196 2.07 10.854 6.267v1.508l-1.304.751-10.854-6.266-1.194 2.072 9.658 5.576-1.7.98a5.113 5.113 0 0 0-2.477 3.5 2.022 2.022 0 0 1-2.852 1.452.655.655 0 0 0-.776.159L7.14 36.648a.407.407 0 0 0-.047.47.409.409 0 0 0 .43.195l5.732-1.073a.655.655 0 0 0 .526-.592 2.021 2.021 0 0 1 2.685-1.744c1.364.48 2.92.383 4.27-.398l1.699-.978v11.151h2.39V31.146l1.305-.753 1.305.753V43.68h2.391V32.527l1.698.978c1.35.781 2.907.878 4.27.398a2.019 2.019 0 0 1 2.685 1.744.654.654 0 0 0 .526.592l5.731 1.074a.41.41 0 0 0 .43-.195.409.409 0 0 0-.05-.468Zm-22.684-6.883-3.188 1.84a1.303 1.303 0 1 1-1.303-2.26l3.188-1.84 1.304.753v1.507Zm2.39-12.339a1.305 1.305 0 1 1 2.61 0v3.68l-1.304.752-1.305-.752v-3.68Zm2.806 9.566-1.5.865-1.502-.866V25.26l1.502-.867 1.5.867v1.734Zm7.164 4.136c-.36.623-1.16.837-1.783.478l-3.187-1.841V28.26l1.304-.754 3.187 1.84c.624.36.838 1.157.479 1.783ZM200.085 20.82h-8.72V3.387H183.4v45.481h7.965V28.895h8.72v19.973h8.139V3.387h-8.139V20.82ZM58.07 3.387l8.84 27.888v17.593h8.848V30.371l9.164-26.984h-7.446L71.46 21.106l-5.445-17.72H58.07ZM134.893 3.387l-3.815 21.635-4.425-21.635h-12.435v45.481h7.13V14.584l6.086 29.804h6.659L139.49 14.1v34.768h8.362V3.387h-12.959ZM232.495 3.387h-12.318l-8.312 45.481h7.371l1.763-10.583h9.168l1.71 10.583h8.122l-7.504-45.481Zm-10.232 27.316 3.389-20.341 3.29 20.341h-6.679ZM159.805 3.387l-8.314 45.481h7.372l1.765-10.583h9.168l1.71 10.583h8.121l-7.506-45.481h-12.316Zm2.085 27.316 3.39-20.341 3.29 20.341h-6.68ZM90.621 3.387l-8.314 45.481h7.374l1.764-10.583h9.168l1.71 10.583h8.119l-7.504-45.481H90.621Zm2.087 27.316 3.389-20.341 3.289 20.341h-6.678Z"/></g><defs><clipPath id="a"><path fill="#fff" d="M0 0h240v52.256H0z"/></clipPath></defs></svg>
